svgs/regular/bug.svg

<svg xmlns="http://www.w3.org/2000/svg" viewBox="0 0 512 512"><!--! Font Awesome Pro 6.4.2 by @fontawesome - https://fontawesome.com License - https://fontawesome.com/license (Commercial License) Copyright 2023 Fonticons, Inc. --><path d="M256 0c53 0 96 43 96 96v3.6c0 15.7-12.7 28.4-28.4 28.4H188.4c-15.7 0-28.4-12.7-28.4-28.4V96c0-53 43-96 96-96zM39 103c9.4-9.4 24.6-9.4 33.9 0l72.4 72.4C161.3 165.7 180 160 200 160H312c20 0 38.7 5.7 54.6 15.5L439 103c9.4-9.4 24.6-9.4 33.9 0s9.4 24.6 0 33.9l-72.4 72.4C410.3 225.3 416 244 416 264h72c13.3 0 24 10.7 24 24s-10.7 24-24 24H416v8c0 27.2-6.8 52.8-18.8 75.3L473 471c9.4 9.4 9.4 24.6 0 33.9s-24.6 9.4-33.9 0l-70.9-70.9C339.3 462.5 299.7 480 256 480s-83.3-17.5-112.2-45.9L73 505c-9.4 9.4-24.6 9.4-33.9 0s-9.4-24.6 0-33.9l75.8-75.8C102.8 372.8 96 347.2 96 320v-8H24c-13.3 0-24-10.7-24-24s10.7-24 24-24H96c0-20 5.7-38.7 15.5-54.6L39 137c-9.4-9.4-9.4-24.6 0-33.9zM144 264v56c0 53.6 37.7 98.4 88 109.4V280c0-13.3 10.7-24 24-24s24 10.7 24 24V429.4c50.3-11 88-55.8 88-109.4V264c0-30.9-25.1-56-56-56H200c-30.9 0-56 25.1-56 56z"/></svg>

<svg xmlns="http://www.w3.org/2000/svg" viewBox="0 0 512 512"><!--! Font Awesome Pro 6.1.1 by @fontawesome - https://fontawesome.com License - https://fontawesome.com/license (Commercial License) Copyright 2022 Fonticons, Inc. --><path d="M352 96V99.56C352 115.3 339.3 128 323.6 128H188.4C172.7 128 160 115.3 160 99.56V96C160 42.98 202.1 0 256 0C309 0 352 42.98 352 96zM39.03 103C48.4 93.66 63.6 93.66 72.97 103L145.4 175.5C161.3 165.7 179.1 160 200 160H312C332 160 350.7 165.7 366.6 175.5L439 103C448.4 93.66 463.6 93.66 472.1 103C482.3 112.4 482.3 127.6 472.1 136.1L400.5 209.4C410.3 225.3 416 243.1 416 264H488C501.3 264 512 274.7 512 288C512 301.3 501.3 312 488 312H416V320C416 347.2 409.2 372.8 397.2 395.3L472.1 471C482.3 480.4 482.3 495.6 472.1 504.1C463.6 514.3 448.4 514.3 439 504.1L368.2 434.1C339.3 462.5 299.7 480 256 480C212.3 480 172.7 462.5 143.8 434.1L72.97 504.1C63.6 514.3 48.4 514.3 39.03 504.1C29.66 495.6 29.66 480.4 39.03 471L114.8 395.3C102.8 372.8 96 347.2 96 320V312H24C10.75 312 0 301.3 0 288C0 274.7 10.75 264 24 264H96C96 243.1 101.7 225.3 111.5 209.4L39.03 136.1C29.66 127.6 29.66 112.4 39.03 103V103zM144 320C144 373.6 181.7 418.4 232 429.4V280C232 266.7 242.7 256 256 256C269.3 256 280 266.7 280 280V429.4C330.3 418.4 368 373.6 368 320V264C368 233.1 342.9 208 312 208H200C169.1 208 144 233.1 144 264V320z"/></svg>
